!!!OTL: LASSET UNS SCHLINGEN DEM FRUEHLING BLUEMELEIN
!!!ARE: Europa, Mitteleuropa, Deutschland
!!!SCT: F0371
!!!YEM: Copyright 1995, estate of Helmut Schaffrath.
**kern
*ICvox
*Ivox
*M3/4
*k[f#c#]
*D:
=1
{4A
4F#
4A
=2
4A
8G
8F#
4G}
=3
{4G
4E
4G
=4
8F#
8E
8F#
8G
4A}
=5
{4A
4F#
4A
=6
4.d
8c#
4B}
=7
{4A
4B
4G#
=8
2A
4r}
=9
{4.A
8G
4F#
=10
4.A
8G
4F#}
=11
{4d
4c#
4B
=12
4d
4c#
4B}
=13
{4A
4A
4A
=14
4.f#
8e
4d}
=15
{4.e
8d
4c#
=16
4e
4d
4r}
==
!!!AGN: Jugend - Lied, Natur, Jahreszeiten, Fruehling
!!!ONB: ESAC (Essen Associative Code) Database: FINK
!!!AMT: simple triple
!!!AIN: vox
!!!EED: Helmut Schaffrath
!!!EEV: 1.0
*-
